packages/kaspersky-hexa-ui-icons/src/iconsSVGs/48/SafeEmpty.svg

<svg width="48" height="48" viewBox="0 0 48 48" fill="none" xmlns="http://www.w3.org/2000/svg">
<path fill-rule="evenodd" clip-rule="evenodd" d="M45 3.00012H36.65L33.89 0.540118C33.5976 0.238779 33.1592 0.130148 32.76 0.260118C32.3074 0.410499 32.0014 0.833191 32 1.31012V2.00012H29C28.1519 2.00467 27.3454 2.36797 26.78 3.00012H3C1.34315 3.00012 0 4.34326 0 6.00012V42.0001C0 43.657 1.34315 45.0001 3 45.0001H26.78C27.3454 45.6323 28.1519 45.9956 29 46.0001H32V46.6901C32.0014 47.167 32.3074 47.5897 32.76 47.7401C32.8725 47.7595 32.9875 47.7595 33.1 47.7401C33.3973 47.7425 33.6827 47.6233 33.89 47.4101L36.65 45.0001H45C46.6569 45.0001 48 43.657 48 42.0001V6.00012C48 4.34326 46.6569 3.00012 45 3.00012ZM3 43.0001C2.44772 43.0001 2 42.5524 2 42.0001V6.00012C2 5.44783 2.44772 5.00012 3 5.00012H26V7.00012H4V41.0001H26V43.0001H3ZM26 23.0001H6V9.00012H26V23.0001ZM6 25.0001H26V39.0001H6V25.0001ZM29 44.0001C28.4477 44.0001 28 43.5524 28 43.0001V5.00012C28 4.44783 28.4477 4.00012 29 4.00012H32V44.0001H29ZM34 3.32012L42 10.4501V15.2801C41.3849 15.6352 41.0043 16.2899 41 17.0001V19.0001C41.0043 19.7103 41.3849 20.365 42 20.7201V27.2801C41.3849 27.6352 41.0043 28.2899 41 29.0001V31.0001C41.0043 31.7103 41.3849 32.365 42 32.7201V37.5501L34 44.6801V3.32012ZM46 42.0001C46 42.5524 45.5523 43.0001 45 43.0001H38.89L41.14 41.0001H44V32.7201C44.6151 32.365 44.9957 31.7103 45 31.0001V29.0001C44.9957 28.2899 44.6151 27.6352 44 27.2801V20.7201C44.6151 20.365 44.9957 19.7103 45 19.0001V17.0001C44.9957 16.2899 44.6151 15.6352 44 15.2801V7.00012H41.14L38.89 5.00012H45C45.5523 5.00012 46 5.44783 46 6.00012V42.0001ZM30.71 35.2901C30.8927 35.4818 30.9963 35.7354 31 36.0001C30.9983 36.4046 30.7532 36.7682 30.3789 36.9214C30.0046 37.0746 29.5748 36.9873 29.29 36.7001C29.1053 36.5139 29.0011 36.2625 29 36.0001C29.0037 35.7354 29.1073 35.4818 29.29 35.2901C29.3392 35.2449 29.3928 35.2047 29.45 35.1701C29.5011 35.1305 29.5586 35.1001 29.62 35.0801C29.6755 35.0443 29.7362 35.0173 29.8 35.0001C29.9316 34.9701 30.0684 34.9701 30.2 35.0001C30.2626 35.0111 30.3233 35.0313 30.38 35.0601L30.56 35.1501L30.71 35.2901ZM31 27.8101C31.0049 27.8734 31.0049 27.9369 31 28.0001C30.9989 28.2625 30.8947 28.5139 30.71 28.7001C30.5222 28.8894 30.2666 28.9959 30 28.9959C29.7334 28.9959 29.4778 28.8894 29.29 28.7001C29.1053 28.5139 29.0011 28.2625 29 28.0001C29.0037 27.7354 29.1073 27.4818 29.29 27.2901C29.3392 27.2449 29.3928 27.2047 29.45 27.1701C29.5011 27.1305 29.5586 27.1001 29.62 27.0801L29.8 27.0001C29.9316 26.9701 30.0684 26.9701 30.2 27.0001L30.38 27.0601C30.4437 27.082 30.5043 27.1123 30.56 27.1501C30.6124 27.187 30.6625 27.2271 30.71 27.2701L30.83 27.4201C30.8678 27.4759 30.8981 27.5364 30.92 27.6001C30.9597 27.6645 30.9868 27.7357 31 27.8101ZM31 19.8101C31.0049 19.8734 31.0049 19.9369 31 20.0001C31.0015 20.2659 30.8972 20.5214 30.71 20.7101C30.6128 20.7984 30.5012 20.8695 30.38 20.9201C30.138 21.0271 29.862 21.0271 29.62 20.9201C29.4988 20.8695 29.3872 20.7984 29.29 20.7101C29.199 20.615 29.1276 20.5029 29.08 20.3801C29.0288 20.2599 29.0016 20.1308 29 20.0001C29.0037 19.7354 29.1073 19.4818 29.29 19.2901L29.45 19.1701C29.5011 19.1305 29.5586 19.1001 29.62 19.0801L29.8 19.0001C30.1294 18.9312 30.4714 19.0327 30.71 19.2701L30.83 19.4201C30.8678 19.4759 30.8981 19.5364 30.92 19.6001C30.9597 19.6645 30.9868 19.7357 31 19.8101ZM30.73 11.2901C30.9055 11.4848 31.0018 11.738 31 12.0001C31.0015 12.2659 30.8972 12.5214 30.71 12.7101C30.6128 12.7984 30.5012 12.8695 30.38 12.9201C30.138 13.0271 29.862 13.0271 29.62 12.9201C29.4988 12.8695 29.3872 12.7984 29.29 12.7101C29.199 12.615 29.1276 12.5029 29.08 12.3801C29.0288 12.2599 29.0016 12.1308 29 12.0001C28.9976 11.5939 29.2413 11.2265 29.6165 11.0707C29.9917 10.915 30.4239 11.0017 30.71 11.2901H30.73Z"  fill="currentColor"/>
</svg>

<svg xmlns="http://www.w3.org/2000/svg" width="48" height="48" fill="none" viewBox="0 0 48 48"><path fill="currentColor" fill-rule="evenodd" d="M45 3.0001h-8.35l-2.76-2.46a1.1 1.1 0 0 0-1.13-.28 1.11 1.11 0 0 0-.76 1.05v.69h-3a3 3 0 0 0-2.22 1H3c-1.6568 0-3 1.3432-3 3v36c0 1.6569 1.3432 3 3 3h23.78a3 3 0 0 0 2.22 1h3v.69a1.11 1.11 0 0 0 .76 1.05c.1125.0194.2275.0194.34 0a1.09 1.09 0 0 0 .79-.33l2.76-2.41H45c1.6569 0 3-1.3431 3-3v-36c0-1.6568-1.3431-3-3-3m-42 40c-.5523 0-1-.4477-1-1v-36c0-.5523.4477-1 1-1h23v2H4v34h22v2zm23-20H6v-14h20zm-20 2h20v14H6zm23 19c-.5523 0-1-.4477-1-1v-38c0-.5523.4477-1 1-1h3v40zm5-40.68 8 7.13v4.83a2 2 0 0 0-1 1.72v2a2 2 0 0 0 1 1.72v6.56a2 2 0 0 0-1 1.72v2a2 2 0 0 0 1 1.72v4.83l-8 7.13zm12 38.68c0 .5523-.4477 1-1 1h-6.11l2.25-2H44v-8.28a2 2 0 0 0 1-1.72v-2a2 2 0 0 0-1-1.72v-6.56a2 2 0 0 0 1-1.72v-2a2 2 0 0 0-1-1.72v-8.28h-2.86l-2.25-2H45c.5523 0 1 .4477 1 1zm-15.29-6.71c.1827.1917.2863.4453.29.71a1 1 0 0 1-2 0 1.05 1.05 0 0 1 .29-.71 1 1 0 0 1 .16-.12.56.56 0 0 1 .17-.09.64.64 0 0 1 .18-.08.9.9 0 0 1 .4 0 .64.64 0 0 1 .18.06l.18.09zm.29-7.48a1.2 1.2 0 0 1 0 .19 1 1 0 0 1-2 0 1.05 1.05 0 0 1 .29-.71 1 1 0 0 1 .16-.12.56.56 0 0 1 .17-.09l.18-.08a.9.9 0 0 1 .4 0l.18.06a.76.76 0 0 1 .18.09q.0787.0554.15.12l.12.15a.76.76 0 0 1 .09.18.6.6 0 0 1 .08.21m0-8a1.2 1.2 0 0 1 0 .19 1 1 0 0 1-.29.71 1.15 1.15 0 0 1-.33.21.94.94 0 0 1-.76 0 1.15 1.15 0 0 1-.33-.21 1 1 0 0 1-.21-.33 1 1 0 0 1-.08-.38 1.05 1.05 0 0 1 .29-.71l.16-.12a.56.56 0 0 1 .17-.09l.18-.08a1 1 0 0 1 .91.27l.12.15a.76.76 0 0 1 .09.18.6.6 0 0 1 .08.21m-.27-8.52c.1755.1947.2718.4479.27.71a1 1 0 0 1-.29.71 1.15 1.15 0 0 1-.33.21.94.94 0 0 1-.76 0 1.15 1.15 0 0 1-.33-.21 1 1 0 0 1-.21-.33 1 1 0 0 1-.08-.38 1 1 0 0 1 1.71-.71z" clip-rule="evenodd"/></svg>
